papirus/22x22/apps/qtractor.svg

<svg height="22" width="22" xmlns="http://www.w3.org/2000/svg" xmlns:xlink="http://www.w3.org/1999/xlink"><radialGradient id="a" cx="198.31" cy="109.06" fx="143.62" fy="122.04" gradientTransform="matrix(.07267532 -.00627503 .00749803 .09755043 2.0328001 -1.2024516)" gradientUnits="userSpaceOnUse" r="63.507999"><stop offset="0" stop-color="#1d1100" stop-opacity=".66667"/><stop offset=".52659" stop-color="#4f340c" stop-opacity=".30196"/><stop offset="1" stop-color="#3d3001" stop-opacity="0"/></radialGradient><g transform="translate(-.99999985 -1)"><path d="m12.500046 6.4999321l.500002 5.0000219c0 0-3.3089644-.426937-4.5000196.500002-1.1238049.874604-1.5000066 4.000018-1.5000066 4.000018h-1.5000065c0 0 .09378-3.562066 1.0000044-5.000022 1.3329558-2.1150094 6.0000263-4.5000199 6.0000263-4.5000199z" fill="#c6ae91"/><path d="m12.500046 6.4999321c0 0-4.6670205 2.3850105-6.0000263 4.5000199-.906004 1.438006-1.0000044 5.000022-1.0000044 5.000022h.0255c.058-.998005.2640011-3.372515.9745043-4.50002 1.3330059-2.1150093 6.0000264-4.5000197 6.0000264-4.5000197l.449002 4.4950197c.004.0005.051.005.051.005z" fill="#fff" opacity=".2"/><ellipse cx="14.335731" cy="12.74367" fill="#d1bda5" rx="4.9006791" ry="6.5750308" transform="matrix(.96348853 -.2677496 .25013993 .9682097 0 0)"/><path d="m13.37905 3.1764676c-1.225356 1.2233553-1.392556 4.6606704.07207 8.2380364 1.454756 3.524965 5.865526 3.182864 6.963031 1.934558 1.108009-1.196005 2.669516-4.1920183-.199496-8.481537-2.849513-4.18476837-5.570525-2.9234128-6.83553-1.6909574z" fill="url(#a)" fill-rule="evenodd" stroke-width="1pt"/><rect fill="#0b0b0b" height=".50000221" rx=".96135426" ry=".50000221" width="8.0000353" x="4.500011" y="14.499968"/><path d="m16.326063 1.9999124a6.5765288 4.8988715 76.817 0 0 -.970505.1338006 6.5765288 4.8988715 76.817 0 0 -3.347514 5.8150255 6.5765288 4.8988715 76.817 0 1  3.347514-5.3150233 6.5765288 4.8988715 76.817 0 1  6.366028 5.0535221 6.5765288 4.8988715 76.817 0 1  .270502 1.8635082 6.5765288 4.8988715 76.817 0 0 -.270502-2.3635104 6.5765288 4.8988715 76.817 0 0 -5.395523-5.1875227z" fill="#fff" opacity=".2"/><path d="m3.0000043 14.999969h11.0000487c.554002 0 1.000004.390252 1.000004.875004v5.250023c0 .485002-.446002.875004-1.000004.875004h-11.0000487c-.5540024 0-1.0000044-.390002-1.0000044-.875004v-5.250023c0-.485002.446002-.875004 1.0000044-.875004z" fill="#c6ae91"/><rect fill="#c69191" height="5.0000219" rx=".69230306" ry=".62500274" width="9.0000391" x="4.0000086" y="15.999973"/><path d="m3.0000043 14.999969c-.5540024 0-1.0000044.390252-1.0000044.875004v.500002c0-.485002.446002-.875003 1.0000044-.875003h11.0000487c.554002 0 1.000004.390251 1.000004.875003v-.500002c0-.485002-.446002-.875004-1.000004-.875004z" fill="#fff" opacity=".2"/><path d="m21.992088 9.1599438a6.5765288 4.8988715 76.817 0 1 -3.347515 5.2060232 6.5765288 4.8988715 76.817 0 1 -5.741025-3.376015c-.275002-.033-3.2665146-.375002-4.4035196.510002-.7116531.553852-1.1217549 2.006209-1.3281058 3.000013h.1201155c.229501-.933004.6060027-2.031509 1.2080053-2.500011 1.137205-.885054 4.1284176-.543152 4.4033196-.509752a6.5765288 4.8988715 76.817 0 0 5.741025 3.376015 6.5765288 4.8988715 76.817 0 0  3.347665-5.7060252zm-19.9920881 11.4650502v.500002c0 .485002.446002.875004 1.0000044.875004h11.0000487c.554002 0 1.000004-.390252 1.000004-.875004v-.500002c0 .485002-.446002.875004-1.000004.875004h-11.0000487c-.5540024 0-1.0000044-.390002-1.0000044-.875004z" opacity=".3"/></g></svg>

<?xml version="1.0" encoding="UTF-8" standalone="no"?>
<!-- Created with Inkscape (http://www.inkscape.org/) -->

<svg
   xmlns:dc="http://purl.org/dc/elements/1.1/"
   xmlns:cc="http://creativecommons.org/ns#"
   xmlns:rdf="http://www.w3.org/1999/02/22-rdf-syntax-ns#"
   xmlns:svg="http://www.w3.org/2000/svg"
   xmlns="http://www.w3.org/2000/svg"
   xmlns:sodipodi="http://sodipodi.sourceforge.net/DTD/sodipodi-0.dtd"
   xmlns:inkscape="http://www.inkscape.org/namespaces/inkscape"
   id="svg2817"
   height="22"
   width="22"
   version="1.0"
   inkscape:version="0.91 r13725"
   sodipodi:docname="qtractor.svg">
  <sodipodi:namedview
     pagecolor="#ffffff"
     bordercolor="#666666"
     borderopacity="1"
     objecttolerance="10"
     gridtolerance="10"
     guidetolerance="10"
     inkscape:pageopacity="0"
     inkscape:pageshadow="2"
     inkscape:window-width="1600"
     inkscape:window-height="849"
     id="namedview19"
     showgrid="false"
     inkscape:zoom="9.95"
     inkscape:cx="-15.522728"
     inkscape:cy="6.2656129"
     inkscape:window-x="0"
     inkscape:window-y="0"
     inkscape:window-maximized="1"
     inkscape:current-layer="svg2817" />
  <metadata
     id="metadata57">
    <rdf:RDF>
      <cc:Work
         rdf:about="">
        <dc:format>image/svg+xml</dc:format>
        <dc:type
           rdf:resource="http://purl.org/dc/dcmitype/StillImage" />
        <dc:title></dc:title>
      </cc:Work>
    </rdf:RDF>
  </metadata>
  <defs
     id="defs2819">
    <radialGradient
       id="radialGradient3035"
       fx="143.62"
       fy="122.04"
       gradientUnits="userSpaceOnUse"
       cy="109.06"
       cx="198.31"
       gradientTransform="matrix(0.07267532,-0.00627503,0.00749803,0.09755043,2.0328001,-1.2024516)"
       r="63.507999">
      <stop
         id="stop2284"
         stop-color="#1d1100"
         stop-opacity=".66667"
         offset="0" />
      <stop
         id="stop2292"
         stop-color="#4f340c"
         stop-opacity=".30196"
         offset=".52659" />
      <stop
         id="stop2285"
         stop-color="#3d3001"
         stop-opacity="0"
         offset="1" />
    </radialGradient>
  </defs>
  <g
     id="g4146"
     transform="translate(-0.99999985,-1)">
    <path
       d="m 12.500046,6.4999321 0.500002,5.0000219 c 0,0 -3.3089644,-0.426937 -4.5000196,0.500002 -1.1238049,0.874604 -1.5000066,4.000018 -1.5000066,4.000018 l -1.5000065,0 c 0,0 0.09378,-3.562066 1.0000044,-5.000022 C 7.8329755,8.8849426 12.500046,6.4999321 12.500046,6.4999321 Z"
       id="rect4187"
       inkscape:connector-curvature="0"
       style="fill:#c6ae91" />
    <path
       d="m 12.500046,6.4999321 c 0,0 -4.6670205,2.3850105 -6.0000263,4.5000199 -0.906004,1.438006 -1.0000044,5.000022 -1.0000044,5.000022 l 0.0255,0 c 0.058,-0.998005 0.2640011,-3.372515 0.9745043,-4.50002 C 7.8330255,9.3849447 12.500046,6.9999343 12.500046,6.9999343 l 0.449002,4.4950197 c 0.004,5e-4 0.051,0.005 0.051,0.005 L 12.500046,6.4999321 Z"
       id="path4212"
       inkscape:connector-curvature="0"
       style="opacity:0.2;fill:#ffffff" />
    <ellipse
       cx="14.335731"
       cy="12.74367"
       transform="matrix(0.96348853,-0.2677496,0.25013993,0.9682097,0,0)"
       ry="6.5750308"
       rx="4.9006791"
       id="path4185"
       style="fill:#d1bda5" />
    <path
       d="m 13.37905,3.1764676 c -1.225356,1.2233553 -1.392556,4.6606704 0.07207,8.2380364 1.454756,3.524965 5.865526,3.182864 6.963031,1.934558 C 21.52216,12.153057 23.083667,9.1570437 20.214655,4.867525 17.365142,0.68275663 14.64413,1.9441122 13.379125,3.1765676 Z"
       id="path2282"
       style="fill:url(#radialGradient3035);fill-rule:evenodd;stroke-width:1pt"
       inkscape:connector-curvature="0" />
    <rect
       x="4.500011"
       y="14.499968"
       width="8.0000353"
       height="0.50000221"
       ry="0.50000221"
       rx="0.96135426"
       id="rect4208"
       style="fill:#0b0b0b" />
    <path
       d="M 16.326063,1.9999124 A 6.5765288,4.8988715 76.817 0 0 15.355558,2.133713 6.5765288,4.8988715 76.817 0 0 12.008044,7.9487385 6.5765288,4.8988715 76.817 0 1 15.355558,2.6337152 6.5765288,4.8988715 76.817 0 1 21.721586,7.6872373 6.5765288,4.8988715 76.817 0 1 21.992088,9.5507455 6.5765288,4.8988715 76.817 0 0 21.721586,7.1872351 6.5765288,4.8988715 76.817 0 0 16.326063,1.9997124 Z"
       id="ellipse4217"
       inkscape:connector-curvature="0"
       style="opacity:0.2;fill:#ffffff" />
    <path
       d="m 3.0000043,14.999969 11.0000487,0 c 0.554002,0 1.000004,0.390252 1.000004,0.875004 l 0,5.250023 C 15.000057,21.609998 14.554055,22 14.000053,22 L 3.0000043,22 C 2.4460019,22 1.9999999,21.609998 1.9999999,21.124996 l 0,-5.250023 c 0,-0.485002 0.446002,-0.875004 1.0000044,-0.875004 z"
       id="rect4183"
       inkscape:connector-curvature="0"
       style="fill:#c6ae91" />
    <rect
       x="4.0000086"
       y="15.999973"
       width="9.0000391"
       height="5.0000219"
       ry="0.62500274"
       rx="0.69230306"
       id="rect4210"
       style="fill:#c69191" />
    <path
       d="m 3.0000043,14.999969 c -0.5540024,0 -1.0000044,0.390252 -1.0000044,0.875004 l 0,0.500002 c 0,-0.485002 0.446002,-0.875003 1.0000044,-0.875003 l 11.0000487,0 c 0.554002,0 1.000004,0.390251 1.000004,0.875003 l 0,-0.500002 c 0,-0.485002 -0.446002,-0.875004 -1.000004,-0.875004 l -11.0000487,0 z"
       id="path4223"
       inkscape:connector-curvature="0"
       style="opacity:0.2;fill:#ffffff" />
    <path
       d="m 21.992088,9.1599438 a 6.5765288,4.8988715 76.817 0 1 -3.347515,5.2060232 6.5765288,4.8988715 76.817 0 1 -5.741025,-3.376015 c -0.275002,-0.033 -3.2665146,-0.375002 -4.4035196,0.510002 -0.7116531,0.553852 -1.1217549,2.006209 -1.3281058,3.000013 l 0.1201155,0 c 0.229501,-0.933004 0.6060027,-2.031509 1.2080053,-2.500011 1.137205,-0.885054 4.1284176,-0.543152 4.4033196,-0.509752 a 6.5765288,4.8988715 76.817 0 0 5.741025,3.376015 6.5765288,4.8988715 76.817 0 0 3.347665,-5.7060252 z M 1.9999999,20.624994 l 0,0.500002 C 1.9999999,21.609998 2.4460019,22 3.0000043,22 l 11.0000487,0 c 0.554002,0 1.000004,-0.390252 1.000004,-0.875004 l 0,-0.500002 c 0,0.485002 -0.446002,0.875004 -1.000004,0.875004 l -11.0000487,0 c -0.5540024,0 -1.0000044,-0.390002 -1.0000044,-0.875004 z"
       id="path4236"
       inkscape:connector-curvature="0"
       style="opacity:0.3" />
  </g>
</svg>
